icons-dark/mimetypes/16/audio-midi.svg

<svg width="16" xmlns="http://www.w3.org/2000/svg" height="16" viewBox="0 0 16 16">
 <path fill="#3a539b" stroke-width="2" d="m2 2v12h12v-12zm1 1h2v6h2v-6h2v6h2v-6h2v10h-10z"/>
</svg>

<?xml version="1.0" encoding="UTF-8" standalone="no"?>

<!-- Created with Inkscape (http://www.inkscape.org/) -->
<svg width="16" version="1.1" xmlns="http://www.w3.org/2000/svg" height="16" viewBox="0 0 16 16" xmlns:inkscape="http://www.inkscape.org/namespaces/inkscape">
 <defs id="defs4"/>
 <metadata id="metadata7"/>
 <path inkscape:label="Capa 1" inkscape:groupmode="layer" style="fill:#3a539b;stroke-linecap:square;stroke-width:2" id="rect4139" d="M 2 2 L 2 14 L 14 14 L 14 2 L 2 2 z M 3 3 L 5 3 L 5 9 L 7 9 L 7 3 L 9 3 L 9 9 L 11 9 L 11 3 L 13 3 L 13 13 L 3 13 L 3 3 z "/>
</svg>
